openframe-frontend-core/src/components/icons-v2/brand-logos/anthropic-logo.svg

<svg width="24" height="24" viewBox="0 0 24 24" fill="none" xmlns="http://www.w3.org/2000/svg">
<path d="M5.92329 15.3001L9.85872 13.0933L9.92491 12.9016L9.85872 12.795H9.66695L9.00925 12.7545L6.76062 12.6938L4.81045 12.6128L2.92107 12.5116L2.44567 12.4103L2 11.8232L2.04591 11.5303L2.44569 11.2617L3.0183 11.3116L4.28375 11.398L6.18259 11.5289L7.56012 11.6099L9.60078 11.8218H9.92491L9.97083 11.6909L9.86008 11.6099L9.77365 11.5289L7.80862 10.1981L5.68155 8.79172L4.56736 7.98192L3.96502 7.57159L3.66116 7.18692L3.53014 6.34742L4.07712 5.74544L4.8118 5.79538L4.99953 5.84533L5.74366 6.41759L7.33324 7.64719L9.40901 9.17505L9.71287 9.42744L9.83443 9.34106L9.84928 9.28033L9.71287 9.05224L8.58382 7.01282L7.37917 4.93832L6.84299 4.07855L6.70119 3.56297C6.65122 3.35105 6.61476 3.1729 6.61476 2.95559L7.23735 2.11068L7.58174 2L8.41231 2.11068L8.76211 2.41436L9.27801 3.59402L10.114 5.45121L11.4105 7.9765L11.79 8.72559L11.9926 9.41934L12.0682 9.63126H12.1992V9.50979L12.3059 8.0872L12.5031 6.34067L12.6948 4.0934L12.761 3.46039L13.0743 2.70185L13.6969 2.29155L14.1831 2.5237L14.5829 3.09598L14.5275 3.4658L14.2898 5.00986L13.8239 7.42855L13.52 9.0482H13.6969L13.8995 8.84575L14.7193 7.75788L16.0968 6.037L16.7046 5.35404L17.4136 4.59955L17.8687 4.24053H18.729L19.3624 5.18129L19.0788 6.15307L18.1929 7.27603L17.4582 8.22758L16.4047 9.64477L15.747 10.7785L15.8078 10.869L15.9645 10.8541L18.3441 10.348L19.6298 10.1158L21.164 9.85263L21.8582 10.1766L21.9338 10.5059L21.661 11.1794L20.0201 11.5843L18.0956 11.969L15.2298 12.6465L15.1947 12.6722L15.2352 12.7221L16.5263 12.8436L17.0787 12.8733H18.4306L20.9479 13.0609L21.6056 13.4955L22 14.0273L21.9338 14.4322L20.9209 14.9478L19.5542 14.6238L16.3643 13.8653L15.2703 13.5927H15.1191V13.6831L16.0307 14.5739L17.7013 16.0815L19.7932 18.0251L19.8999 18.5056L19.6312 18.8849L19.3476 18.8444L17.5095 17.4623L16.8005 16.8401L15.1947 15.489H15.088V15.6307L15.458 16.172L17.4123 19.1076L17.5135 20.0078L17.3717 20.3007L16.8653 20.4775L16.3089 20.3763L15.165 18.7715L13.9846 16.9642L13.0325 15.3446L12.9163 15.4107L12.3545 21.4588L12.0912 21.7679L11.4834 22L10.977 21.6153L10.7082 20.9931L10.977 19.7635L11.3011 18.1587L11.5644 16.8833L11.8021 15.2987L11.9439 14.7723L11.9345 14.7372L11.8183 14.7521L10.6231 16.392L8.80532 18.8471L7.36701 20.3858L7.02262 20.5221L6.42569 20.213L6.48105 19.6609L6.81464 19.1697L8.80532 16.639L10.0059 15.0706L10.7811 14.165L10.7757 14.034H10.7298L5.44251 17.465L4.50117 17.5864L4.09603 17.2072L4.146 16.585L4.33776 16.3825L5.92733 15.2892L5.92193 15.2947L5.92329 15.3001Z" fill="#D97757"/>
</svg>

<svg xmlns="http://www.w3.org/2000/svg" width="24" height="24" fill="none" viewBox="0 0 24 24">
  <path fill="#D97757" d="m5.923 15.3 3.936-2.207.066-.191-.066-.107h-.192l-.658-.04-2.248-.061-1.95-.081-1.89-.101-.475-.102L2 11.823l.046-.293.4-.268.572.05 1.266.086 1.899.13 1.377.082 2.04.212h.325l.046-.131-.11-.081-.087-.081-1.965-1.33-2.127-1.407-1.115-.81-.602-.41-.304-.385-.13-.84.546-.602.735.05.188.05.744.573 1.59 1.23 2.075 1.527.304.252.121-.086.015-.06-.136-.229-1.13-2.04L7.38 4.939l-.536-.86-.142-.515a2.507 2.507 0 0 1-.086-.607l.622-.845L7.582 2l.83.11.35.304.516 1.18.836 1.857 1.296 2.526.38.749.203.693.075.212h.131V9.51l.107-1.423.197-1.746.192-2.248.066-.633.313-.758.623-.41.486.232.4.572-.056.37-.237 1.544-.466 2.419-.304 1.62h.177l.203-.203.82-1.088 1.377-1.721.608-.683.709-.754.455-.36h.86l.633.941-.283.972-.886 1.123-.735.952-1.053 1.417-.658 1.133.06.091.157-.015 2.38-.506 1.286-.232 1.534-.263.694.324.076.329-.273.673-1.64.405-1.925.385-2.866.678-.035.025.04.05 1.291.122.553.03h1.352l2.517.187.658.434.394.532-.066.405-1.013.516-1.367-.324-3.19-.759-1.094-.272h-.15v.09l.91.89 1.671 1.508 2.092 1.944.107.48-.269.38-.283-.04-1.838-1.383-.71-.622-1.605-1.351h-.107v.142l.37.541 1.954 2.936.102.9-.142.293-.507.177-.556-.102-1.144-1.605-1.18-1.807-.952-1.62-.117.067-.562 6.048-.263.309-.608.232-.506-.385-.269-.622.269-1.23.324-1.604.263-1.276.238-1.584.142-.527-.01-.035-.116.015-1.195 1.64-1.818 2.455-1.438 1.539-.344.136-.597-.309.055-.552.334-.491 1.99-2.531 1.2-1.568.776-.906-.005-.131h-.046l-5.287 3.431-.942.121-.405-.379.05-.622.192-.203 1.59-1.093-.006.006.001.005Z"/>
</svg>
